X:951
T:Reel 951
M:4/4
K:Dmix
L:1/8
G|AFDA DEFD|EC (3A,A,C EFGE|DA,DE FGAB|cAGE ADD2|E|D2AD FDAD|ECA,B, CDEG|dcAB c2cA|cBcG EDD2|||dd2d dfed|cGAB c2ec|dfed cAAG|GEcE DDDA|d2fd dfed|cAGF ECCE|DFEG  (3ABc Bd|cAGE FDDz|
